assets/icons/qvision/table_chart.svg

<svg xmlns="http://www.w3.org/2000/svg" height="24" viewBox="0 0 24 24" width="24"><path d="M0 0h24v24H0V0z" fill="none"/><path d="M10 10.02h5V21h-5zM17 21h3c1.1 0 2-.9 2-2v-9h-5v11zm3-18H5c-1.1 0-2 .9-2 2v3h19V5c0-1.1-.9-2-2-2zM3 19c0 1.1.9 2 2 2h3V10H3v9z"/></svg>

<svg width="24" height="24" viewBox="0 0 24 24" fill="none" xmlns="http://www.w3.org/2000/svg">
<g clip-path="url(#clip0_147_2782)">
<path d="M10 10.02H15V21H10V10.02ZM17 21H20C21.1 21 22 20.1 22 19V10H17V21ZM20 3H5C3.9 3 3 3.9 3 5V8H22V5C22 3.9 21.1 3 20 3ZM3 19C3 20.1 3.9 21 5 21H8V10H3V19Z" fill="#323232"/>
</g>
<defs>
<clipPath id="clip0_147_2782">
<rect width="24" height="24" fill="white"/>
</clipPath>
</defs>
</svg>
